svg/white/pgt.svg

<?xml version="1.0" encoding="UTF-8"?>
<svg width="32px" height="32px" viewBox="0 0 32 32" version="1.1" xmlns="http://www.w3.org/2000/svg" xmlns:xlink="http://www.w3.org/1999/xlink">
    <!-- Generator: Sketch 52.4 (67378) - http://www.bohemiancoding.com/sketch -->
    <title>svg/white/pgt</title>
    <desc>Created with Sketch.</desc>
    <g id="white/pgt" stroke="none" stroke-width="1" fill="none" fill-rule="evenodd">
        <path d="M16,32 C7.163444,32 0,24.836556 0,16 C0,7.163444 7.163444,0 16,0 C24.836556,0 32,7.163444 32,16 C32,24.836556 24.836556,32 16,32 Z M15.2198009,26.8040806 C15.2716685,26.7909198 15.2613849,26.7534979 15.2291971,26.6569343 C15.0773723,26.189781 14.1138686,22.7153285 14.1313869,22.6919708 C14.1489051,22.680292 14.3416058,22.7094891 14.5635036,22.7620438 C15.1649635,22.8905109 16.2394161,22.9313869 16.8759124,22.8437956 C20,22.4233577 22.470073,19.9591241 22.8846715,16.8467153 C22.9255474,16.5372263 22.9372263,16.0291971 22.919708,15.5737226 C22.8846715,14.7036496 22.8963504,14.7620438 21.9211679,11.3343066 C21.5532847,10.0379562 21.0627737,8.2919708 20.8233577,7.46277372 L20.4028457,5.97082047 C20.4870393,6.0090375 20.5725596,6.0488871 20.659854,6.09051095 C23.8948905,7.64379562 26.1021898,10.5868613 26.7445255,14.2014599 C26.8613139,14.8846715 26.8437956,17.1854015 26.7153285,17.8510949 C26.3649635,19.6145985 25.6875912,21.150365 24.659854,22.5226277 C24.2043796,23.129927 23.1532847,24.1810219 22.540146,24.6423358 C21.1737226,25.6642336 19.5094891,26.3883212 17.8861314,26.6686131 C17.1384774,26.8019158 16.0974486,26.8546842 15.2198009,26.8040806 Z M13.5768928,26.5736838 C13.4260573,26.5385007 13.2731043,26.5000464 13.1225074,26.4597325 C13.2732937,26.5011991 13.4248044,26.5392095 13.5768928,26.5736838 Z M11.6397916,25.9308574 C9.91969198,25.171695 8.37236148,23.9593723 7.24671533,22.4291971 C6.4350365,21.3255474 5.95036496,20.3737226 5.55912409,19.0773723 C4.48467153,15.5562044 5.29635036,11.6846715 7.7080292,8.84671533 C9.1620438,7.13576642 11.2642336,5.83941606 13.4364964,5.33138686 C14.4408759,5.09781022 14.7737226,5.06277372 16.0759124,5.06861314 C16.3304113,5.06861314 16.5384155,5.06945341 16.7150763,5.0722381 C16.7442681,5.21554856 16.9788661,6.06836712 17.2671533,7.07737226 C17.5824818,8.18686131 17.8218978,9.11532847 17.7985401,9.13868613 C17.7751825,9.16788321 17.5474453,9.14452555 17.2963504,9.08613139 C16.6773723,8.95182482 15.2583942,8.95182482 14.6452555,9.08613139 C12.379562,9.58248175 10.6627737,10.9313869 9.68759124,12.9751825 C9.42481752,13.5182482 9.19708029,14.2540146 9.10364964,14.8437956 C9.01605839,15.3693431 9.02773723,16.5956204 9.12116788,17.1211679 C9.16788321,17.3605839 9.49489051,18.5985401 9.85693431,19.8656934 C10.2131387,21.1328467 10.7445255,23.0014599 11.0306569,24.0116788 C11.3167883,25.0218978 11.5854015,25.8744526 11.620438,25.9153285 C11.6260758,25.9203399 11.6325369,25.9255193 11.6397916,25.9308574 Z M14.2131387,27.8364964 C14.9722628,27.9416058 17.4656934,27.9124088 18.0613139,27.789781 C19.0189781,27.5912409 20.3094891,27.2 20.7007299,26.9956204 C20.7591241,26.9664234 21.080292,26.8087591 21.4189781,26.6394161 C23.3927007,25.6583942 25.1386861,24.0116788 26.3708029,21.9678832 C26.5226277,21.7167883 27.0248175,20.7124088 27.0248175,20.659854 C27.0248175,20.6423358 27.0773723,20.5138686 27.1357664,20.3737226 C27.4394161,19.7080292 27.8364964,18.1489051 27.9240876,17.2671533 C28.140146,15.2175182 27.8656934,13.319708 27.0773723,11.3284672 C26.9722628,11.059854 26.8613139,10.820438 26.8379562,10.7854015 C26.8145985,10.7562044 26.6686131,10.4934307 26.5226277,10.2014599 C26.3708029,9.91532847 26.189781,9.59416058 26.1138686,9.49489051 C26.0379562,9.39562044 25.9737226,9.29635036 25.9737226,9.26715328 C25.9737226,9.24379562 25.9036496,9.14452555 25.8218978,9.03941606 C25.740146,8.94014599 25.5416058,8.68905109 25.3839416,8.47883212 C24.9810219,7.95328467 24.0525547,7.0189781 23.4919708,6.57518248 C22.8321168,6.04963504 22.7912409,6.02627737 22.2072993,5.66423358 C20.9985401,4.92846715 19.5737226,4.37372263 18.2364964,4.12262774 C17.4014599,3.9649635 14.5927007,3.95912409 13.7693431,4.11678832 C10.9839416,4.63649635 8.33868613,6.23649635 6.59854015,8.44963504 C6.4,8.70656934 6.20729927,8.95182482 6.17226277,8.99270073 C6.14306569,9.02773723 5.98540146,9.27883212 5.82189781,9.54744526 C5.66423358,9.81021898 5.51240876,10.0671533 5.47737226,10.1138686 C5.35474453,10.3124088 5.02773723,10.9781022 4.92846715,11.2525547 C4.87007299,11.4160584 4.8,11.5737226 4.77664234,11.6029197 C4.72992701,11.6671533 4.46131387,12.5372263 4.49051095,12.5372263 C4.49635036,12.5372263 4.4729927,12.6014599 4.43211679,12.6773723 C4.39124088,12.7532847 4.30364964,13.080292 4.24525547,13.4072993 C4.1810219,13.7284672 4.10510949,14.1547445 4.06423358,14.3474453 C4.02919708,14.5459854 4,15.2467153 4,15.9824818 C4,17.179562 4.01167883,17.3255474 4.1810219,18.1489051 C4.33868613,18.9372263 4.6189781,19.9124088 4.77664234,20.2452555 C4.80583942,20.3094891 4.88175182,20.4963504 4.9459854,20.6540146 C5.4189781,21.8861314 6.5459854,23.5211679 7.6729927,24.6014599 C9.15036496,26.0145985 11.1240876,27.1182482 12.9810219,27.5678832 C13.2379562,27.6262774 13.4890511,27.6963504 13.5416058,27.7138686 C13.5941606,27.7372263 13.8978102,27.789781 14.2131387,27.8364964 Z M16.8350365,19.4861314 C16.3737226,19.6029197 15.5328467,19.5912409 15.0481752,19.4627737 C13.4364964,19.0306569 12.3620438,17.6350365 12.3562044,15.9824818 C12.350365,14.8963504 12.6715328,14.1255474 13.4481752,13.3489051 C13.9912409,12.8058394 14.4,12.5781022 15.1708029,12.3854015 C17.0452555,11.9124088 19.0364964,13.1328467 19.5211679,15.0481752 C19.6379562,15.4978102 19.6321168,16.3912409 19.5153285,16.8525547 C19.2,18.0846715 18.1021898,19.1649635 16.8350365,19.4861314 Z" id="Combined-Shape" fill="#FFFFFF" fill-rule="nonzero"></path>
    </g>
</svg>

<svg width="32" height="32" viewBox="0 0 32 32" xmlns="http://www.w3.org/2000/svg"><path d="M16 32C7.163 32 0 24.837 0 16S7.163 0 16 0s16 7.163 16 16-7.163 16-16 16zm-.78-5.196c.052-.013.041-.05.01-.147-.153-.467-1.116-3.942-1.099-3.965.018-.012.21.017.433.07.601.129 1.675.17 2.312.082 3.124-.42 5.594-2.885 6.009-5.997.04-.31.052-.818.035-1.273-.035-.87-.024-.812-.999-4.24-.368-1.296-.858-3.042-1.098-3.871l-.42-1.492c.084.038.17.078.257.12 3.235 1.553 5.442 4.496 6.085 8.11.116.684.099 2.984-.03 3.65-.35 1.764-1.027 3.3-2.055 4.672-.456.607-1.507 1.658-2.12 2.12-1.366 1.021-3.03 1.745-4.654 2.026-.748.133-1.789.186-2.666.135zm-1.643-.23zm-1.937-.643a10.99 10.99 0 0 1-4.393-3.502c-.812-1.103-1.297-2.055-1.688-3.352-1.074-3.52-.263-7.392 2.149-10.23 1.454-1.711 3.556-3.008 5.728-3.516 1.005-.233 1.338-.268 2.64-.262.254 0 .462 0 .64.003.028.144.263.996.551 2.005.315 1.11.555 2.038.532 2.062-.024.029-.252.006-.503-.053-.619-.134-2.038-.134-2.65 0-2.266.496-3.983 1.845-4.958 3.89a7.31 7.31 0 0 0-.584 1.868c-.088.525-.076 1.752.017 2.277.047.24.374 1.478.736 2.745.356 1.267.888 3.135 1.174 4.146.286 1.01.554 1.862.59 1.903a.27.27 0 0 0 .019.016zm2.573 1.905c.76.106 3.253.076 3.848-.046.958-.199 2.248-.59 2.64-.794.058-.03.38-.187.718-.357 1.974-.98 3.72-2.627 4.952-4.671.152-.251.654-1.256.654-1.308a2.7 2.7 0 0 1 .11-.286c.304-.666.701-2.225.79-3.107.215-2.05-.06-3.947-.848-5.939a5.463 5.463 0 0 0-.239-.543 7.735 7.735 0 0 1-.315-.584 7.709 7.709 0 0 0-.41-.706c-.075-.1-.14-.199-.14-.228 0-.023-.07-.122-.151-.228-.082-.099-.28-.35-.438-.56-.403-.526-1.331-1.46-1.892-1.904-.66-.525-.7-.549-1.285-.91-1.208-.737-2.633-1.291-3.97-1.542-.836-.158-3.644-.164-4.468-.006-2.785.52-5.43 2.12-7.17 4.333-.199.257-.392.502-.427.543-.029.035-.187.286-.35.554-.158.263-.31.52-.345.567-.122.198-.45.864-.549 1.139a2.125 2.125 0 0 1-.151.35c-.047.064-.316.934-.286.934a.451.451 0 0 1-.059.14c-.04.076-.128.403-.187.73-.064.321-.14.748-.18.94-.036.199-.065.9-.065 1.635 0 1.198.012 1.344.181 2.167.158.788.438 1.763.596 2.096.029.064.105.251.169.409.473 1.232 1.6 2.867 2.727 3.947 1.477 1.414 3.451 2.517 5.308 2.967.257.058.508.128.56.146.053.023.357.076.672.122zm2.622-8.35c-.461.117-1.302.105-1.787-.023-1.612-.432-2.686-1.828-2.692-3.48-.006-1.087.316-1.857 1.092-2.634.543-.543.952-.77 1.723-.964 1.874-.473 3.865.748 4.35 2.663.117.45.111 1.343-.006 1.805-.315 1.232-1.413 2.312-2.68 2.633z" fill="#FFF"/></svg>
